X: 1
T: the Tocher Band
C: Muriel Johnstone
R: reel
Z: 2012 John Chambers <jc:trillian.mit.edu>
B: Leeds Silver Jubilee
M: C|
L: 1/8
K: G
d2 |\
"G"BGdD "C"E2EG | "G"Dd^cd "(Em)"BdGB | "Am"cAeE "(A7)"A2AG | "D7"Fd^cd edcd |
"G"BGdD "C"E2EG | "G"Dd^cd "(Em)"BdGB | "Am"EAce "D7"DFAd | "G"B2"C"G2 "G"G2 :|
|: "G7"g2 |\
"C"e2^de "D7"FAce | "G"d2^cd "(Em)"DGBd | "Am"c2Bc "D7"FAce | "G"dBgB "G7"fB=fB |
"C"e2^de "D7"FAce | "G"d2^cd "(Em)"DGBd | "Am"ecAE "D7"DFAd | "G"B2"C"G2 "G"G2 :|

